icons/media/go-forward-5-24.svg

<svg width="24" height="24" viewBox="0 0 24 24" fill="none" xmlns="http://www.w3.org/2000/svg">
<path d="M10.411 0.580996C10.6631 0.453244 10.9656 0.478064 11.1935 0.6452L14.9435 3.3952C15.1362 3.53648 15.25 3.7611 15.25 4C15.25 4.23891 15.1362 4.46353 14.9435 4.60481L11.1935 7.35481C10.9656 7.52194 10.6631 7.54676 10.411 7.41901C10.1589 7.29126 10 7.03263 10 6.75V4.73663C6.27063 5.63603 3.5 8.99446 3.5 13C3.5 17.6944 7.30558 21.5 12 21.5C16.6944 21.5 20.5 17.6944 20.5 13C20.5 10.6526 19.5494 8.52861 18.0104 6.98959C17.7175 6.6967 17.7175 6.22183 18.0104 5.92893C18.3033 5.63604 18.7782 5.63604 19.0711 5.92893C20.8799 7.73776 22 10.2388 22 13C22 18.5228 17.5228 23 12 23C6.47715 23 2 18.5228 2 13C2 8.16208 5.43552 4.12658 10 3.20004V1.25C10 0.967376 10.1589 0.708748 10.411 0.580996Z" fill="black"/>
<path fill-rule="evenodd" clip-rule="evenodd" d="M9.33902 9.75C9.33902 9.33579 9.67481 9 10.089 9H14.2661C14.6803 9 15.0161 9.33579 15.0161 9.75C15.0161 10.1642 14.6803 10.5 14.2661 10.5H10.839V12.1649C11.1934 12.0548 11.5854 12 12.0161 12C12.7796 12 13.5776 12.231 14.2008 12.7297C14.8424 13.2433 15.2661 14.0185 15.2661 15C15.2661 16.9547 13.6235 18.25 12.0161 18.25C10.5041 18.25 9.52528 17.2331 9.07835 16.3338C8.89401 15.9628 9.04527 15.5127 9.41621 15.3284C9.78714 15.144 10.2373 15.2953 10.4216 15.6662C10.711 16.2486 11.2612 16.75 12.0161 16.75C12.894 16.75 13.7661 16.0306 13.7661 15C13.7661 14.4888 13.5611 14.1391 13.2634 13.9008C12.9472 13.6477 12.4952 13.5 12.0161 13.5C11.5236 13.5 11.1983 13.6006 10.9719 13.7334C10.6274 13.9355 10.2394 13.9073 9.95603 13.7784C9.66792 13.6474 9.33902 13.334 9.33902 12.8458V9.75Z" fill="black"/>
</svg>

<svg xmlns="http://www.w3.org/2000/svg" width="24" height="24"><path d="M10.411.581a.75.75 0 01.783.064l3.75 2.75a.75.75 0 010 1.21l-3.75 2.75A.75.75 0 0110 6.75V4.737a8.5 8.5 0 108.01 2.253.75.75 0 111.061-1.061A9.971 9.971 0 0122 13c0 5.523-4.477 10-10 10S2 18.523 2 13c0-4.838 3.436-8.873 8-9.8V1.25a.75.75 0 01.411-.669z"/><path fill-rule="evenodd" d="M9.339 9.75a.75.75 0 01.75-.75h4.177a.75.75 0 010 1.5H10.84v1.665c.354-.11.746-.165 1.177-.165.764 0 1.562.231 2.185.73.641.513 1.065 1.288 1.065 2.27 0 1.955-1.643 3.25-3.25 3.25-1.512 0-2.49-1.017-2.938-1.916a.75.75 0 111.344-.668c.289.583.84 1.084 1.594 1.084.878 0 1.75-.72 1.75-1.75 0-.511-.205-.86-.503-1.1-.316-.252-.768-.4-1.247-.4-.492 0-.818.1-1.044.233a1.11 1.11 0 01-1.016.045c-.288-.13-.617-.444-.617-.932V9.75z"/></svg>
